assets/images/support.svg

<svg width="32" height="32" viewBox="0 0 32 32" fill="none" xmlns="http://www.w3.org/2000/svg">
<path d="M23.3304 1.94171C20.2754 1.98919 17.4797 3.66663 16.0003 6.33991C14.5203 3.66663 11.7246 1.98919 8.66957 1.94171C3.68912 2.15787 -0.18117 6.35615 0.00687738 11.3379C0.00687738 17.3979 6.38551 24.0164 11.7352 28.5039C14.2011 30.5762 17.799 30.5762 20.2648 28.5039C25.6145 24.0164 31.9931 17.3979 31.9931 11.3379C32.1812 6.35615 28.3109 2.15787 23.3304 1.94171ZM18.5524 26.4648C17.0774 27.7068 14.9226 27.7068 13.4476 26.4648C6.5998 20.7196 2.67203 15.2069 2.67203 11.3379C2.48211 7.82742 5.16039 4.82178 8.66957 4.60749C12.1788 4.82178 14.857 7.82805 14.6671 11.3379C14.6671 12.0738 15.2637 12.6704 15.9997 12.6704C16.7356 12.6704 17.3323 12.0738 17.3323 11.3379C17.1423 7.82742 19.8206 4.82178 23.3298 4.60749C26.839 4.82178 29.5173 7.82805 29.3274 11.3379C29.3274 15.2069 25.3996 20.7196 18.5518 26.4598L18.5524 26.4648Z" fill="#FF857F"/>
</svg>

<?xml version="1.0" encoding="UTF-8"?>
<svg id="Layer_1" xmlns="http://www.w3.org/2000/svg" version="1.1" viewBox="0 0 32 32">
  <!-- Generator: Adobe Illustrator 29.5.1, SVG Export Plug-In . SVG Version: 2.1.0 Build 141)  -->
  <defs>
    <style>
      .st0 {
        fill: #ff857f;
      }
    </style>
  </defs>
  <path class="st0" d="M23.33,1.94c-3.06.05-5.85,1.72-7.33,4.4-1.48-2.67-4.28-4.35-7.33-4.4C3.69,2.16-.18,6.36,0,11.34,0,17.4,6.39,24.02,11.74,28.5c2.47,2.07,6.06,2.07,8.53,0,5.35-4.49,11.73-11.11,11.73-17.17.19-4.98-3.68-9.18-8.66-9.4ZM18.55,26.46c-1.48,1.24-3.63,1.24-5.1,0C6.6,20.72,2.67,15.21,2.67,11.34c-.19-3.51,2.49-6.52,6-6.73,3.51.21,6.19,3.22,6,6.73,0,.74.6,1.33,1.33,1.33s1.33-.6,1.33-1.33c-.19-3.51,2.49-6.52,6-6.73,3.51.21,6.19,3.22,6,6.73,0,3.87-3.93,9.38-10.78,15.12h0Z"/>
</svg>
